Numix/24/emotes/face-confused.svg

<?xml version="1.0" encoding="UTF-8" standalone="no"?>
<svg
   xmlns:dc="http://purl.org/dc/elements/1.1/"
   xmlns:cc="http://creativecommons.org/ns#"
   xmlns:rdf="http://www.w3.org/1999/02/22-rdf-syntax-ns#"
   xmlns:svg="http://www.w3.org/2000/svg"
   xmlns="http://www.w3.org/2000/svg"
   xmlns:sodipodi="http://sodipodi.sourceforge.net/DTD/sodipodi-0.dtd"
   xmlns:inkscape="http://www.inkscape.org/namespaces/inkscape"
   width="24px"
   height="24px"
   viewBox="0 0 18 18"
   version="1.1"
   id="svg1296"
   inkscape:version="0.91 r"
   sodipodi:docname="face-confused.svg">
  <metadata
     id="metadata1315">
    <rdf:RDF>
      <cc:Work
         rdf:about="">
        <dc:format>image/svg+xml</dc:format>
        <dc:type
           rdf:resource="http://purl.org/dc/dcmitype/StillImage" />
      </cc:Work>
    </rdf:RDF>
  </metadata>
  <defs
     id="defs1313" />
  <sodipodi:namedview
     pagecolor="#ffffff"
     bordercolor="#666666"
     borderopacity="1"
     objecttolerance="10"
     gridtolerance="10"
     guidetolerance="10"
     inkscape:pageopacity="0"
     inkscape:pageshadow="2"
     inkscape:window-width="640"
     inkscape:window-height="480"
     id="namedview1311" />
  <g
     id="surface1">
    <path
       style=" stroke:none;fill-rule:nonzero;fill:rgb(100%,85.490196%,36.862745%);fill-opacity:1;"
       d="M 15.75 9 C 15.75 12.210938 12.726562 14.8125 9 14.8125 C 5.273438 14.8125 2.25 12.210938 2.25 9 C 2.25 5.789062 5.273438 3.1875 9 3.1875 C 12.726562 3.1875 15.75 5.789062 15.75 9 Z M 15.75 9 "
       id="path1299" />
    <path
       style=" stroke:none;fill-rule:nonzero;fill:rgb(39.607843%,39.607843%,39.607843%);fill-opacity:1;"
       d="M 8.4375 11.625 L 9.5625 11.625 C 9.667969 11.625 9.75 11.707031 9.75 11.8125 L 9.75 12.1875 C 9.75 12.292969 9.667969 12.375 9.5625 12.375 L 8.4375 12.375 C 8.332031 12.375 8.25 12.292969 8.25 12.1875 L 8.25 11.8125 C 8.25 11.707031 8.332031 11.625 8.4375 11.625 Z M 8.4375 11.625 "
       id="path1301" />
    <path
       style=" stroke:none;fill-rule:nonzero;fill:rgb(39.607843%,39.607843%,39.607843%);fill-opacity:1;"
       d="M 10.5 5.25 L 12 5.25 C 12.105469 5.25 12.1875 5.332031 12.1875 5.4375 C 12.1875 5.542969 12.105469 5.625 12 5.625 L 10.5 5.625 C 10.394531 5.625 10.3125 5.542969 10.3125 5.4375 C 10.3125 5.332031 10.394531 5.25 10.5 5.25 Z M 10.5 5.25 "
       id="path1303" />
    <path
       style=" stroke:none;fill-rule:nonzero;fill:rgb(39.607843%,39.607843%,39.607843%);fill-opacity:1;"
       d="M 7.6875 7.6875 C 7.6875 8.207031 7.269531 8.625 6.75 8.625 C 6.230469 8.625 5.8125 8.207031 5.8125 7.6875 C 5.8125 7.167969 6.230469 6.75 6.75 6.75 C 7.269531 6.75 7.6875 7.167969 7.6875 7.6875 Z M 7.6875 7.6875 "
       id="path1305" />
    <path
       style=" stroke:none;fill-rule:nonzero;fill:rgb(39.607843%,39.607843%,39.607843%);fill-opacity:1;"
       d="M 12.1875 7.6875 C 12.1875 8.207031 11.769531 8.625 11.25 8.625 C 10.730469 8.625 10.3125 8.207031 10.3125 7.6875 C 10.3125 7.167969 10.730469 6.75 11.25 6.75 C 11.769531 6.75 12.1875 7.167969 12.1875 7.6875 Z M 12.1875 7.6875 "
       id="path1307" />
    <path
       style=" stroke:none;fill-rule:nonzero;fill:rgb(39.607843%,39.607843%,39.607843%);fill-opacity:1;"
       d="M 6 6 L 7.5 6 C 7.605469 6 7.6875 6.082031 7.6875 6.1875 C 7.6875 6.292969 7.605469 6.375 7.5 6.375 L 6 6.375 C 5.894531 6.375 5.8125 6.292969 5.8125 6.1875 C 5.8125 6.082031 5.894531 6 6 6 Z M 6 6 "
       id="path1309" />
  </g>
</svg>

<svg xmlns="http://www.w3.org/2000/svg" width="24" height="24" viewBox="0 0 18 18">
 <g>
  <path d="m 15.75 9 c 0 3.211 -3.02 5.813 -6.75 5.813 c -3.727 0 -6.75 -2.602 -6.75 -5.813 c 0 -3.211 3.02 -5.813 6.75 -5.813 c 3.727 0 6.75 2.602 6.75 5.813 m 0 0" style="fill:#ffd95d;fill-opacity:1;stroke:none;fill-rule:nonzero"/>
  <path d="m 8.438 11.625 l 1.125 0 c 0.105 0 0.188 0.082 0.188 0.188 l 0 0.375 c 0 0.105 -0.082 0.188 -0.188 0.188 l -1.125 0 c -0.105 0 -0.188 -0.082 -0.188 -0.188 l 0 -0.375 c 0 -0.105 0.082 -0.188 0.188 -0.188 m 0 0" style="fill:#646464;fill-opacity:1;stroke:none;fill-rule:nonzero"/>
  <path d="m 10.5 5.25 l 1.5 0 c 0.105 0 0.188 0.082 0.188 0.188 c 0 0.105 -0.082 0.188 -0.188 0.188 l -1.5 0 c -0.105 0 -0.188 -0.082 -0.188 -0.188 c 0 -0.105 0.082 -0.188 0.188 -0.188 m 0 0" style="fill:#646464;fill-opacity:1;stroke:none;fill-rule:nonzero"/>
  <path d="m 7.688 7.688 c 0 0.52 -0.418 0.938 -0.938 0.938 c -0.52 0 -0.938 -0.418 -0.938 -0.938 c 0 -0.52 0.418 -0.938 0.938 -0.938 c 0.52 0 0.938 0.418 0.938 0.938 m 0 0" style="fill:#646464;fill-opacity:1;stroke:none;fill-rule:nonzero"/>
  <path d="m 12.188 7.688 c 0 0.52 -0.418 0.938 -0.938 0.938 c -0.52 0 -0.938 -0.418 -0.938 -0.938 c 0 -0.52 0.418 -0.938 0.938 -0.938 c 0.52 0 0.938 0.418 0.938 0.938 m 0 0" style="fill:#646464;fill-opacity:1;stroke:none;fill-rule:nonzero"/>
  <path d="m 6 6 l 1.5 0 c 0.105 0 0.188 0.082 0.188 0.188 c 0 0.105 -0.082 0.188 -0.188 0.188 l -1.5 0 c -0.105 0 -0.188 -0.082 -0.188 -0.188 c 0 -0.105 0.082 -0.188 0.188 -0.188 m 0 0" style="fill:#646464;fill-opacity:1;stroke:none;fill-rule:nonzero"/>
 </g>
</svg>
